src/components/profile_avatars/profile-female-2.svg

<svg xmlns="http://www.w3.org/2000/svg" width="528" height="528" fill="none" viewBox="0 0 528 528"><g clip-path="url(#a)"><ellipse cx="265.5" cy="281.5" fill="#20acda" rx="257.5" ry="254.5"/><path fill="#f67476" d="M480.933 850.434c25.309 292.396 54.337 523.886-96.093 536.906-150.429 13.02-319.8613-244.51-345.17-536.908-29.595-351.435 58.6947-419.159 187.576-469.788 162.06-19.228 280.818 68.883 313.502 167.768 72.57 219.564-72.852 151.4-59.815 302.022"/><path stroke="#fefefe" stroke-width="20.0183" d="M200.028 440.735c4.671 21.353 32.506 54.049 72.066 54.049 49.379 0 64.726-26.691 70.732-51.38"/><path fill="#fed09f" d="M213.142 388.373c7.386-61.894-14.069-98.866-4.693-172.007 42.194-38.034 124.246 9.201 120.227 58.096-4.22 51.355-9.763 88.479 6.859 117.203-4.689 26.331 19.173 90.215-57.436 94.445-76.608 4.23-69.101-63.012-64.957-97.737"/><path fill="#efaf85" d="M267.48 385.734c-23.194 6.037-47.114-9.241-52.228-20.412l-1.583-14.042c5.754-2.394 23.27-5.745 47.308 0 24.037 5.745 47.262-36.237 65.589-52.461l-1.583 25.68c-.639 10.372-.259 9.429-6.858 20.411-7.672 12.767-31.736 35.902-50.645 40.824"/><rect width="70.2158" height="105.324" x="354.497" y="120.52" fill="#fed09f" rx="35.1079" transform="rotate(19.0666 354.497 120.52)"/><rect width="55.4235" height="89.7565" fill="#fed09f" rx="27.7117" transform="rotate(166.29971 79.83011637 78.81634523)scale(1 -1)"/><path fill="#121212" d="M91.5517 361.294s18.3783 30.717 96.0753-27.885c77.697-58.601 120.835-92.888 152.759-92.178s14.486 41.478 0 96.129c-6.457 24.363 83.572 6.684 96.793 0 38.382-19.406 58.931-50.353 46.749-74.404-31.471-62.135-39.289-124.14-56.627-169.217-13.169-34.2392-73.087-97.45157-99.373-69.2792-22.169-8.8711-41.476-40.4595-131.025-11.4873C155.553 26.351 94.0166 95.8512 81.6753 192.732c-13.1688 103.376 22.3867 117.862 9.8764 168.562"/><path fill="#fed09f" d="M166.295 302.946c-8.999-13.798-18.352-71.546-21.544-98.94C127.995 44.4243 287.576 74.7447 325.876 77.1384c30.639 1.915 39.895 72.0776 40.693 106.9196 2.128 12.766 7.395 32.67 3.192 52.659-3.192 15.179-9.587 19.182-20.264 69.895-4.707 22.359-32.098 41.537-64.362 54.682-24.597 10.021-33.007 10.334-51.359 3.951-18.352-6.384-40.165-20.412-67.481-62.299"/><path fill="#121212" d="M283.306 113.84c-22.689 8.95-91.682 28.848-111.482 61.112-21.012 34.24-33.522 39.507 5.985 144.859l-60.636-8.133v-95.256l10.943-108.995 39.792-54.0379c48.414-2.4424 150.415-2.5645 171.107 16.4867s57.699 37.2472 73.616 43.9642l25.865 121.818-35.557 62.193c-8.953-2.748-49.606 10.947-36.873-19.095 15.917-37.553-15.113-125.531-36.999-141.102-17.509-12.456-20.958-30.135-18.969-43.2636-2.321 3.6637-10.535 13.0366-26.792 19.4496"/><path fill="#fdfcf5" d="M249.067 298.199c14.028-.526 31.795-2.137 39.838-5.425.727-.297 1.645.509 1.38 1.248-3.543 9.882-8.799 28.828-39.069 30.739-31.204 1.97-36.867-18.167-38.737-28.247-.121-.654.58-1.164 1.196-.913 7.177 2.93 20.878 3.143 35.392 2.598"/><path fill="#fed09f" d="M365.99 236.101c.593-20.917-7.513-33.309-11.587-46.497 9.031 2.282 25.116-6.545 31.997 19.953 3.905 15.036-5.612 37.612-21.836 42.142.264-2.889 1.269-10.025 1.426-15.598"/><path fill="#f47474" d="M357.008 116.9c-8.779 4.458-19.553 18.394-25.043 26.546-.898 1.333-.863 3.072.046 4.397l9.584 13.973c1.266 1.845 3.796 2.297 5.618.998 9.063-6.463 23.911-17.092 30.064-21.65 5.944-4.403 8.593-16.96 9.464-25.267.227-2.165-1.433-4.02-3.61-4.019-7.045.001-18.196.996-26.123 5.022"/><path fill="#121212" d="M362.076 126.153c-3.944 2.359-12.467 11.07-17.827 16.836-1.344 1.446-1.4 3.654-.157 5.187l.162.2c1.357 1.675 3.794 1.976 5.522.687 7.588-5.661 19.104-14.087 21.56-15.231 1.858-.866 2.888-4.01 3.404-6.948.388-2.208-1.416-4.067-3.632-3.734-2.769.417-6.186 1.3-9.032 3.003"/><path fill="#d74343" d="M282.955 389.082c-24.66 9.093-56.305-6.116-69.896-16.869-4.627-3.661-6.749-9.904-9.061-10.262-14.238-2.202-47.892 49.853-30.418 69.651 11.933 13.519 74.675 64.155 137.204 38.859 99.668-40.321 72.486-69.652 51.129-96.045-20.341-25.137-27.83-10.996-36.89-5.133-4.315 1.711-14.238 9.537-42.068 19.799"/><path fill="#d74343" d="m445.41 512.332-64.977-101.47c-1.071-1.672-2.981-2.611-4.959-2.439l-39.337 3.429c-3.615.315-5.869 4.066-4.45 7.405l67.307 158.451c1.697 3.994 7.198 4.402 9.465.701l37.007-60.41c1.069-1.744 1.047-3.945-.056-5.667"/><path fill="#a42828" d="m326.143 368.669-1.334-10.009 16.014 2.002zM214.708 374.007l.667-14.012-12.678 2.001z"/></g><defs><clipPath id="a"><path fill="#fff" d="M0 264C0 118.197 118.197 0 264 0s264 118.197 264 264-118.197 264-264 264S0 409.803 0 264"/></clipPath></defs></svg>

<svg width="528" height="528" viewBox="0 0 528 528" fill="none" xmlns="http://www.w3.org/2000/svg">
<g clip-path="url(#clip0_15659_307897)">
<ellipse cx="265.5" cy="281.5" rx="257.5" ry="254.5" fill="#20ACDA"/>
<path d="M480.933 850.434C506.242 1142.83 535.27 1374.32 384.84 1387.34C234.411 1400.36 64.9787 1142.83 39.67 850.432C10.075 498.997 98.3647 431.273 227.246 380.644C389.306 361.416 508.064 449.527 540.748 548.412C613.318 767.976 467.896 699.812 480.933 850.434Z" fill="#F67476"/>
<path d="M200.028 440.735C204.699 462.088 232.534 494.784 272.094 494.784C321.473 494.784 336.82 468.093 342.826 443.404" stroke="#FEFEFE" stroke-width="20.0183"/>
<path d="M213.142 388.373C220.528 326.479 199.073 289.507 208.449 216.366C250.643 178.332 332.695 225.567 328.676 274.462C324.456 325.817 318.913 362.941 335.535 391.665C330.846 417.996 354.708 481.88 278.099 486.11C201.491 490.34 208.998 423.098 213.142 388.373Z" fill="#FED09F"/>
<path d="M267.48 385.734C244.286 391.771 220.366 376.493 215.252 365.322L213.669 351.28C219.423 348.886 236.939 345.535 260.977 351.28C285.014 357.025 308.239 315.043 326.566 298.819L324.983 324.499C324.344 334.871 324.724 333.928 318.125 344.91C310.453 357.677 286.389 380.812 267.48 385.734Z" fill="#EFAF85"/>
<rect x="354.497" y="120.52" width="70.2158" height="105.324" rx="35.1079" transform="rotate(19.0666 354.497 120.52)" fill="#FED09F"/>
<rect width="55.4235" height="89.7565" rx="27.7117" transform="matrix(-0.971548 0.236843 0.236843 0.971548 176.056 136.483)" fill="#FED09F"/>
<path d="M91.5517 361.294C91.5517 361.294 109.93 392.011 187.627 333.409C265.324 274.808 308.462 240.521 340.386 241.231C372.31 241.941 354.872 282.709 340.386 337.36C333.929 361.723 423.958 344.044 437.179 337.36C475.561 317.954 496.11 287.007 483.928 262.956C452.457 200.821 444.639 138.816 427.301 93.739C414.132 59.4998 354.214 -3.71257 327.928 24.4598C305.759 15.5887 286.452 -15.9997 196.903 12.9725C155.553 26.351 94.0166 95.8512 81.6753 192.732C68.5065 296.108 104.062 310.594 91.5517 361.294Z" fill="#121212"/>
<path d="M166.295 302.946C157.296 289.148 147.943 231.4 144.751 204.006C127.995 44.4243 287.576 74.7447 325.876 77.1384C356.515 79.0534 365.771 149.216 366.569 184.058C368.697 196.824 373.964 216.728 369.761 236.717C366.569 251.896 360.174 255.899 349.497 306.612C344.79 328.971 317.399 348.149 285.135 361.294C260.538 371.315 252.128 371.628 233.776 365.245C215.424 358.861 193.611 344.833 166.295 302.946Z" fill="#FED09F"/>
<path d="M283.306 113.84C260.617 122.79 191.624 142.688 171.824 174.952C150.812 209.192 138.302 214.459 177.809 319.811L117.173 311.678V216.422L128.116 107.427L167.908 53.3891C216.322 50.9467 318.323 50.8246 339.015 69.8758C359.707 88.927 396.714 107.123 412.631 113.84L438.496 235.658L402.939 297.851C393.986 295.103 353.333 308.798 366.066 278.756C381.983 241.203 350.953 153.225 329.067 137.654C311.558 125.198 308.109 107.519 310.098 94.3904C307.777 98.0541 299.563 107.427 283.306 113.84Z" fill="#121212"/>
<path d="M249.067 298.199C263.095 297.673 280.862 296.062 288.905 292.774C289.632 292.477 290.55 293.283 290.285 294.022C286.742 303.904 281.486 322.85 251.216 324.761C220.012 326.731 214.349 306.594 212.479 296.514C212.358 295.86 213.059 295.35 213.675 295.601C220.852 298.531 234.553 298.744 249.067 298.199Z" fill="#FDFCF5"/>
<path d="M365.99 236.101C366.583 215.184 358.477 202.792 354.403 189.604C363.434 191.886 379.519 183.059 386.4 209.557C390.305 224.593 380.788 247.169 364.564 251.699C364.828 248.81 365.833 241.674 365.99 236.101Z" fill="#FED09F"/>
<path d="M357.008 116.9C348.229 121.358 337.455 135.294 331.965 143.446C331.067 144.779 331.102 146.518 332.011 147.843L341.595 161.816C342.861 163.661 345.391 164.113 347.213 162.814C356.276 156.351 371.124 145.722 377.277 141.164C383.221 136.761 385.87 124.204 386.741 115.897C386.968 113.732 385.308 111.877 383.131 111.878C376.086 111.879 364.935 112.874 357.008 116.9Z" fill="#F47474"/>
<path d="M362.076 126.153C358.132 128.512 349.609 137.223 344.249 142.989C342.905 144.435 342.849 146.643 344.092 148.176L344.254 148.376C345.611 150.051 348.048 150.352 349.776 149.063C357.364 143.402 368.88 134.976 371.336 133.832C373.194 132.966 374.224 129.822 374.74 126.884C375.128 124.676 373.324 122.817 371.108 123.15C368.339 123.567 364.922 124.45 362.076 126.153Z" fill="#121212"/>
<path d="M282.955 389.082C258.295 398.175 226.65 382.966 213.059 372.213C208.432 368.552 206.31 362.309 203.998 361.951C189.76 359.749 156.106 411.804 173.58 431.602C185.513 445.121 248.255 495.757 310.784 470.461C410.452 430.14 383.27 400.809 361.913 374.416C341.572 349.279 334.083 363.42 325.023 369.283C320.708 370.994 310.785 378.82 282.955 389.082Z" fill="#D74343"/>
<path d="M445.41 512.332L380.433 410.862C379.362 409.19 377.452 408.251 375.474 408.423L336.137 411.852C332.522 412.167 330.268 415.918 331.687 419.257L398.994 577.708C400.691 581.702 406.192 582.11 408.459 578.409L445.466 517.999C446.535 516.255 446.513 514.054 445.41 512.332Z" fill="#D74343"/>
<path d="M326.143 368.669L324.809 358.66L340.823 360.662L326.143 368.669Z" fill="#A42828"/>
<path d="M214.708 374.007L215.375 359.995L202.697 361.996L214.708 374.007Z" fill="#A42828"/>
</g>
<defs>
<clipPath id="clip0_15659_307897">
<path d="M0 264C0 118.197 118.197 0 264 0C409.803 0 528 118.197 528 264C528 409.803 409.803 528 264 528C118.197 528 0 409.803 0 264Z" fill="white"/>
</clipPath>
</defs>
</svg>
